themes/akbyrd/assets/icons/consolas.svg

<?xml version="1.0" encoding="UTF-8" standalone="no"?>
<svg xmlns="http://www.w3.org/2000/svg" viewBox="0 0 32 32">

	<style type="text/css">
		path { fill: #888; }

		@media (prefers-color-scheme: light) {
			path { fill: #666; }
		}
	</style>

	<path
		d="m 12.76959,31.905937 h -1.264649 q -3.2983394,0 -4.9047847,-1.555176 Q 4.993711,28.812675 4.993711,25.668144 v -5.878906 q 0,-0.837402 -0.1879883,-1.486816 Q 4.6177344,17.635918 4.1392188,17.191582 3.677793,16.730156 2.8916602,16.490898 2.1226172,16.25164 0.94341803,16.25164 H 0.20855474 v -2.375488 h 0.73486329 q 1.24755857,0 2.03369137,-0.205078 Q 3.7632422,13.465996 4.2075782,13.05584 4.6519141,12.628593 4.8228126,11.979179 4.993711,11.329765 4.993711,10.441093 V 6.3908005 q 0,-1.4355469 0.3417969,-2.5805664 Q 5.6773047,2.6481247 6.4463477,1.844902 7.2324805,1.0245895 8.4629493,0.59734344 9.7105079,0.15300751 11.504941,0.15300751 H 12.76959 V 2.5455856 h -1.008301 q -3.9648436,0 -3.9648436,3.8452149 v 3.9819335 q 0,4.169922 -3.6059571,4.699707 3.6401368,0.358887 3.6401368,4.682617 v 5.844727 q 0,3.913574 3.9306639,3.913574 h 1.008301 z"
		aria-label="{" />

	<path
		d="m 19.230412,0.15300751 h 1.264648 q 3.29834,0 4.904785,1.55517579 1.606445,1.5380859 1.606445,4.6826172 v 3.9477535 q 0,0.837403 0.187989,1.503907 0.187988,0.649414 0.649414,1.110839 0.478515,0.444336 1.264648,0.683594 0.786133,0.239258 1.965332,0.239258 h 0.734864 v 2.375488 h -0.734864 q -1.247558,0 -2.050781,0.205078 -0.786133,0.205079 -1.230469,0.632325 -0.444336,0.410156 -0.615234,1.05957 -0.170899,0.649414 -0.170899,1.538086 v 5.981445 q 0,1.435547 -0.341796,2.580567 -0.341797,1.162109 -1.11084,1.965332 -0.769043,0.820312 -2.016602,1.247558 -1.247558,0.444336 -3.041992,0.444336 h -1.264648 v -2.392578 h 1.02539 q 3.947754,0 3.947754,-3.845215 v -5.913086 q 0,-4.169922 3.605957,-4.682617 -3.640137,-0.393066 -3.640137,-4.699707 V 6.4591599 q 0,-3.9135743 -3.913574,-3.9135743 h -1.02539 z"
		aria-label="}" />

</svg>

<?xml version="1.0" encoding="UTF-8"?>
<svg viewBox="0 0 32 32" xmlns="http://www.w3.org/2000/svg">

	<style type="text/css">
		svg { fill: #888; }
		@media (prefers-color-scheme: light) {
			svg { fill: #666; }
		}
	</style>

	<path id="lb" d="m12.8 31.9h-1.26q-3.3 0-4.9-1.56-1.61-1.54-1.61-4.68v-5.88q0-0.837-0.188-1.49-0.188-0.667-0.667-1.11-0.461-0.461-1.25-0.701-0.769-0.239-1.95-0.239h-0.735v-2.38h0.735q1.25 0 2.03-0.205t1.23-0.615q0.444-0.427 0.615-1.08 0.171-0.649 0.171-1.54v-4.05q0-1.44 0.342-2.58 0.342-1.16 1.11-1.97 0.786-0.82 2.02-1.25 1.25-0.444 3.04-0.444h1.26v2.39h-1.01q-3.96 0-3.96 3.85v3.98q0 4.17-3.61 4.7 3.64 0.359 3.64 4.68v5.84q0 3.91 3.93 3.91h1.01z" />
	<use href="#lb" transform="scale(-1 1) translate(-32)" />

</svg>
